static/logos/jira-glyph-color.svg

<svg width="50" height="52" viewBox="0 0 50 52" fill="none" xmlns="http://www.w3.org/2000/svg">
<g clip-path="url(#clip0_1_2274)">
<path d="M49.2174 24.1501L27.2193 2.15196L25.0872 0.0215454L0.958756 24.1501C0.169998 24.941 0.169998 26.2214 0.958756 27.0107L16.0875 42.1387L25.0872 51.1407L49.2174 27.0107C50.0069 26.2214 50.0069 24.941 49.2174 24.1501ZM25.0872 33.137L17.5312 25.5815L25.0872 18.0233L32.6449 25.5815L25.0872 33.137Z" fill="#2684FF"/>
<path d="M25.0912 18.0236C20.1443 13.0745 20.1191 5.0591 25.0386 0.0809937L8.5 16.6132L17.5019 25.6151L25.0912 18.0236Z" fill="url(#paint0_linear_1_2274)"/>
<path d="M32.6724 25.5602L25.0938 33.1372C27.482 35.5233 28.8253 38.762 28.8253 42.1391C28.8253 45.5159 27.482 48.7527 25.0938 51.1411L41.6723 34.5621L32.6724 25.5602Z" fill="url(#paint1_linear_1_2274)"/>
</g>
<defs>
<linearGradient id="paint0_linear_1_2274" x1="21.8433" y1="12.2787" x2="13.1893" y2="20.9305" gradientUnits="userSpaceOnUse">
<stop stop-color="#0052CC"/>
<stop offset="1" stop-color="#2684FF"/>
</linearGradient>
<linearGradient id="paint1_linear_1_2274" x1="28.4352" y1="38.8" x2="37.0718" y2="30.1634" gradientUnits="userSpaceOnUse">
<stop stop-color="#0052CC"/>
<stop offset="1" stop-color="#2684FF"/>
</linearGradient>
<clipPath id="clip0_1_2274">
<rect width="50" height="51.1628" fill="white"/>
</clipPath>
</defs>
</svg>

<svg xmlns="http://www.w3.org/2000/svg" width="61.538" height="64" fill="none" viewBox="0 0 50 52"><g clip-path="url(#a)"><path fill="#2684FF" d="M49.217 24.15 27.22 2.152 25.087.022.96 24.15a2.025 2.025 0 0 0 0 2.86L16.087 42.14l9 9.002 24.13-24.13c.79-.79.79-2.07 0-2.86Zm-24.13 8.987-7.556-7.556 7.556-7.558 7.558 7.558-7.558 7.556Z"/><path fill="url(#b)" d="M25.091 18.024C20.144 13.074 20.12 5.059 25.04.08L8.5 16.613l9.002 9.002 7.59-7.591Z"/><path fill="url(#c)" d="m32.672 25.56-7.578 7.577a12.727 12.727 0 0 1 0 18.004l16.578-16.579-9-9.002Z"/></g><defs><linearGradient id="b" x1="21.843" x2="13.189" y1="12.279" y2="20.93" gradientUnits="userSpaceOnUse"><stop stop-color="#0052CC"/><stop offset="1" stop-color="#2684FF"/></linearGradient><linearGradient id="c" x1="28.435" x2="37.072" y1="38.8" y2="30.163" gradientUnits="userSpaceOnUse"><stop stop-color="#0052CC"/><stop offset="1" stop-color="#2684FF"/></linearGradient><clipPath id="a"><path fill="#fff" d="M0 0h50v51.163H0z"/></clipPath></defs></svg>
